app/dist/common/images/xlmedia.svg

<svg height="18" width="18" xmlns="http://www.w3.org/2000/svg"><path d="m0 0h18v18h-18z" fill="#f0f3fa"/><path d="m4 13 4.9-2.77a.2.2 0 0 0 .1-.18.2.2 0 0 0 -.1-.17l-2-1-2.9 1.64z" fill="#064469"/><path d="m10 10.48-2.57-1.37-1.98-1c-.07-.03-.45-.33-.45-.26v2.05l5 2.9z" fill="#45a2db"/><path d="m10 5-4.56 2.77a.2.2 0 0 0 -.1.18c0 .07.04.14.1.17l2 1 2.56-1.7z" fill="#002142"/><path d="m9 7.93-.1-.06-4.9-2.77v2.32l2.9 1.46 2.1 1.1z" fill="#0e769d"/><path d="m14 5.01-5 2.91v.04c0 .08.04.14.1.18l2 1 2.9-1.66v-2.48z" fill="#075772"/><path d="m14 10.5-2.9-1.47-2.1-1.1v2.05l.1.06 4.9 2.77z" fill="#6acce9"/></svg>

<!-- by TradingView --><svg xmlns="http://www.w3.org/2000/svg" width="18" height="18"><path fill="#F0F3FA" d="M0 0h18v18H0z"/><path d="M4 13l4.9-2.77a.2.2 0 00.1-.18.2.2 0 00-.1-.17l-2-1L4 10.52V13z" fill="#064469"/><path d="M10 10.48L7.43 9.11l-1.98-1C5.38 8.08 5 7.78 5 7.85V9.9l5 2.9v-2.32z" fill="#45A2DB"/><path d="M10 5L5.44 7.77a.2.2 0 00-.1.18c0 .07.04.14.1.17l2 1L10 7.42V5z" fill="#002142"/><path d="M9 7.93l-.1-.06L4 5.1v2.32l2.9 1.46L9 9.98V7.93z" fill="#0E769D"/><path d="M14 5.01L9 7.92v.04c0 .08.04.14.1.18l2 1L14 7.48V5z" fill="#075772"/><path d="M14 10.5l-2.9-1.47L9 7.93v2.05l.1.06 4.9 2.77V10.5z" fill="#6ACCE9"/></svg>
